assets/icon/handSlot.svg

<svg viewBox="0 0 150 145" xmlns="http://www.w3.org/2000/svg"><path d="m0 0h150" fill="none"/><path d="m150 145h-150" fill="none"/><path d="m62.8 111.92a1.24 1.24 0 0 1 -.94-.43l-26.31-30.32a1.25 1.25 0 0 1 -.27-1.1 1.27 1.27 0 0 1 .76-.88l16.76-6.53.56-23.66a1.29 1.29 0 0 1 .4-.9l5.24-4.87a1.24 1.24 0 0 1 1.31-.23l4.83 1.87a1.25 1.25 0 0 1 .8.87l1.55 8.55 4.17-4.74 10.58-14.95a1.31 1.31 0 0 1 1-.53h4.87a1.25 1.25 0 0 1 1.21.9l1.78 5.7a1.4 1.4 0 0 1 0 .41l1.9-2.56a1.26 1.26 0 0 1 1-.52h6.82a1.25 1.25 0 0 1 1.23 1l1 4.89a1.25 1.25 0 0 1 -.21 1l-5 7.07 3.11-2.9a1.22 1.22 0 0 1 .85-.34h4.87a1.23 1.23 0 0 1 1.08.62l2.93 4.89a1.27 1.27 0 0 1 -.17 1.52l-9.51 9.94 5.18-2.17a1.29 1.29 0 0 1 1.19.11l5.84 3.91a1.28 1.28 0 0 1 .43 1.63l-2.62 5.23a1.26 1.26 0 0 1 -.49.53l-17.86 10.41-17.11 9.56-11.73 16.5a1.22 1.22 0 0 1 -1 .52zm-24.16-31.06 24.09 27.76 10.93-15.41a1.25 1.25 0 0 1 .42-.37l17.35-9.74 17.5-10.2 1.95-3.9-4.36-2.92-10.14 4.31a1.26 1.26 0 0 1 -1.39-2l13-13.62-2-3.45h-3.66l-11.62 10.75a1.26 1.26 0 0 1 -1.88-1.65l11.61-16.56-.66-3.34h-5.15l-11.81 16.31a1.26 1.26 0 0 1 -2.13-1.34l7.81-14.6-1.3-4.27h-3.28l-10.27 14.46a1 1 0 0 1 -.08.11l-5.93 6.74a1.24 1.24 0 0 1 -1.77.12 1.23 1.23 0 0 1 -.41-.72l-1.88-10.42-3.45-1.33-4.26 4-.58 23.94a1.25 1.25 0 0 1 -.79 1.15z" fill="#f69200" transform="translate(.5 -.5)"/></svg>

<svg id="Layer_1" data-name="Layer 1" xmlns="http://www.w3.org/2000/svg" viewBox="0 0 150 145"><g id="Layer_2" data-name="Layer 2"><g id="Layer_1-2" data-name="Layer 1-2"><line x2="150" fill="none"/><line x1="150" y1="145" y2="145" fill="none"/><path d="M62.8,111.92a1.24,1.24,0,0,1-.94-.43L35.55,81.17a1.25,1.25,0,0,1-.27-1.1,1.27,1.27,0,0,1,.76-.88L52.8,72.66,53.36,49a1.29,1.29,0,0,1,.4-.9L59,43.23A1.24,1.24,0,0,1,60.31,43l4.83,1.87a1.25,1.25,0,0,1,.8.87l1.55,8.55,4.17-4.74L82.24,34.6a1.31,1.31,0,0,1,1-.53h4.87a1.25,1.25,0,0,1,1.21.9l1.78,5.7a1.4,1.4,0,0,1,0,.41L93,38.52A1.26,1.26,0,0,1,94,38h6.82a1.25,1.25,0,0,1,1.23,1l1,4.89a1.25,1.25,0,0,1-.21,1l-5,7.07,3.11-2.9a1.22,1.22,0,0,1,.85-.34h4.87a1.23,1.23,0,0,1,1.08.62l2.93,4.89a1.27,1.27,0,0,1-.17,1.52L101,65.69l5.18-2.17a1.29,1.29,0,0,1,1.19.11l5.84,3.91a1.28,1.28,0,0,1,.43,1.63l-2.62,5.23a1.26,1.26,0,0,1-.49.53L92.67,85.34,75.56,94.9,63.83,111.4a1.22,1.22,0,0,1-1,.52ZM38.64,80.86l24.09,27.76L73.66,93.21a1.25,1.25,0,0,1,.42-.37L91.43,83.1l17.5-10.2L110.88,69l-4.36-2.92L96.38,70.39a1.26,1.26,0,0,1-1.39-2l13-13.62-2-3.45h-3.66L90.71,62.07a1.26,1.26,0,0,1-1.88-1.65l11.61-16.56-.66-3.34H94.63L82.82,56.83a1.26,1.26,0,0,1-2.13-1.34l7.81-14.6-1.3-4.27H83.92L73.65,51.08a1,1,0,0,1-.08.11l-5.93,6.74a1.24,1.24,0,0,1-1.77.12,1.23,1.23,0,0,1-.41-.72L63.58,46.91l-3.45-1.33-4.26,4-.58,23.94a1.25,1.25,0,0,1-.79,1.15Z" transform="translate(0.5 -0.5)" fill="#f69200"/></g></g></svg>
